X: 14283
T: Gaffney's Favourite Son
R: jig
M: 6/8
K: Edorian
|:f|gfe eBe|gfe e2f|gfg efg|afd f/g/af|
gfe eBe|gfe e2c|dAA B/c/dB|1 AFD D2:|2 AFD B2A||
|:~G3 AGF|GAB E2=c|BAG GFG|AFD F/G/AF|
~G3 AGF|GFE e2c|dAA B/c/dB|1 AFD DEF:|2 AFD D2||

